X:1
T:Title
%%score { 1 | 2 }
L:1/8
M:3/4
K:Db
V:1 treble nm="Grand Piano"
V:2 bass 
V:1
 z2 z[Q:1/4=60] [A,DF] [A,DF][DFA] | [DFA]4 [DGB]2 | [DF]2 [CE][CE] EF | G4 [CA]2 |[M:3/8] [DF]3 | %5
 [FA][FA][FA] |[M:3/4] [Fd]4 [FA]2 | [Ac]2 [GB][GB] [AB][AB] | [=Ge]4 [EGd]2 |[M:3/8] [EGc]3 | %10
 [CGA][CGB][Gc] |[M:3/4] [Fd]4 [FA]2 |[M:13/16] [Ac]BB3/2EEE |[M:3/4] A3 G F[CE] |[M:2/4] D4 | %15
[M:1/4] [Fd]2 |[M:3/4] [Gd][Gc] [EGc]2 [CGB]2 | [FB]2 [FA]2 [DF]2 | [CA]3 [CE] [CB][CA] | %19
[M:2/4] [DF]2 [FA]2 |[M:1/4] [Fd]2 |[M:3/4] [Gd][Gc] [EGc]2 [CGB]2 |[M:7/8] [DFB][DFA] [Dd]3 D2 | %23
[M:3/4] [DF][DB] [DA]2 [DF]2 |[M:7/16] [CE]-<[CE]D3/2 |] %25
V:2
 z2 z D, D,D, | D,4 G,,2 | [A,,A,]2 [A,,A,][A,,A,] [G,A,C][F,A,D] | [E,A,C]4 [A,,A,]2 | %4
[M:3/8] [D,A,]3 | [D,D][D,D][D,D] |[M:3/4] [D,A,]4 [D,D]2 | [G,D]2 [G,D][G,D] [F,=D][F,D] | %8
 [E,D]4 E,2 |[M:3/8] A,,3 | A,A,A, |[M:3/4] [D,A,]4 [D,D]2 | %12
[M:13/16] [G,D][G,DG][G,DG]3/2[G,B,D][G,B,D][G,B,D] |[M:3/4] [F,D]3 [G,B,E] [A,D][A,,G,] | %14
[M:2/4] [D,F,]4 |[M:1/4] [D,A,]2 |[M:3/4] [E,A,][E,A,] A,2 A,,2 | [D,D]2 [D,D]2 [D,A,]2 | %18
 [A,,G,]3 [A,,G,] [A,,G,][A,,A,] |[M:2/4] [D,A,]2 [D,D]2 |[M:1/4] [D,A,]2 | %21
[M:3/4] [E,A,][E,A,] A,2 A,,2 |[M:7/8] D,_C, [B,,G,]3 [=A,,=G,]2 | %23
[M:3/4] [A,,A,][A,,G,] [A,,F,]2 [A,,A,]2 |[M:7/16] [A,,G,]-<[A,,G,][D,F,]3/2 |] %25

